img/book.svg

<svg width="48" height="48" viewBox="0 0 48 48" fill="none" xmlns="http://www.w3.org/2000/svg">
<path d="M38 10H40C42.21 10 44 11.79 44 14V38C44 40.21 42.21 42 40 42H8C5.79 42 4 40.21 4 38V14C4 11.79 5.79 10 8 10H10" stroke="white" stroke-width="1.5" stroke-linecap="round" stroke-linejoin="round"/>
<path fill-rule="evenodd" clip-rule="evenodd" d="M24 12C24 8.686 21.314 6 18 6H12C10.896 6 10 6.896 10 8V34C10 35.104 10.896 36 12 36H18C21.314 36 24 38.686 24 42C24 38.686 26.686 36 30 36H36C37.104 36 38 35.104 38 34V8C38 6.896 37.104 6 36 6H30C26.686 6 24 8.686 24 12Z" stroke="white" stroke-width="1.5" stroke-linecap="round" stroke-linejoin="round"/>
<path d="M24 12V42" stroke="white" stroke-width="1.5" stroke-linecap="round" stroke-linejoin="round"/>
</svg>

<svg width="48" height="48" fill="none" xmlns="http://www.w3.org/2000/svg"><path d="M38 10h2c2.21 0 4 1.79 4 4v24c0 2.21-1.79 4-4 4H8c-2.21 0-4-1.79-4-4V14c0-2.21 1.79-4 4-4h2" stroke="#fff" stroke-width="1.5" stroke-linecap="round" stroke-linejoin="round"/><path clip-rule="evenodd" d="M24 12a6 6 0 00-6-6h-6a2 2 0 00-2 2v26a2 2 0 002 2h6a6 6 0 016 6 6 6 0 016-6h6a2 2 0 002-2V8a2 2 0 00-2-2h-6a6 6 0 00-6 6z" stroke="#fff" stroke-width="1.5" stroke-linecap="round" stroke-linejoin="round"/><path d="M24 12v30" stroke="#fff" stroke-width="1.5" stroke-linecap="round" stroke-linejoin="round"/></svg>
